X: 1
T: Flute Melody No.1
N: Derived from Flute_Melody_No_1.krn
%%abc-version 2.0
%%abcx-abcm2ps-target-version 5.9.1 (29 Sep 2008)
%%abc-creator hum2abc beta
%%abcx-conversion-date 2019/03/15 08:35:44
%%humdrum-veritas 2299536968
%%humdrum-veritas-data 2887467830
%%linebreak <none>
%%barnumbers 0
L: 1/8
M: 3/4
K: A clef=treble
[K:clef=treble][M:3/4]A2-(A7/a/) ||  
[M:2/4](A7/a/) | 
A2a2 | 
e3f/e/ | 
d2a2 ||  
[M:3/4]d3c B3/d/ ||  
[M:2/4]A4- | 
A3z | 
e7/d/ | 
(3:2:4dcB/ z/ B3/d/ | 
{/A}a3z | 
A4- | 
(A7/a/) | 
A2a z |]  



